!!!OTL: Gute Nacht.
!!!OTL-incipit: DEM HIMMEL WILL ICH KLAGEN
!!!ARE: Europa, Mitteleuropa, Deutschland, Niederrhein
!!!SCT: Z1378
!!!TXL: @@DE
!!!YEM: Copyright 1995, estate of Helmut Schaffrath.
**kern	**text
*ICvox	*
*M2/4	*
*k[b-]	*
*d:	*
!LO:TX:a:t=Vorſänger.	!
!LO:TX:a:t=Vom Niederrhein.	!
{8a	Dem
=1	=1
8.dd	Himmel
16cc#	.
8dd	will
8ee	ich
=2	=2
8ff	kla-
8dd	-gen,
8r}	.
{8dd;	Mein
=3	=3
!LO:TX:a:t=Alle.	!
8cc	Lieb-
16ddL	-blau-
16ccJ	.
8b-	-blüme-
16ccL	.
16b-J	.
=4	=4
4a	-lein!
8r}	.
!LO:TX:a:t=Vorſänger.	!
{8a	Mein
=5	=5
8dd	Lei-
8cc#	-den
8dd	und
8ee	mein
=6	=6
8ff	Ʒa-
8dd}	-gen,
!LO:TX:a:t=Alle.	!
{4dd/	Mein
=7	=7
8ccn/	Lieb-
16dd/L	-blau-
16ccJ	.
8b-/	-blü-
16cc/L	-me-
16b-J	.
=8	=8
4a}	-lein!
!LO:TX:a:t=Vorſänger.	!
{4a	Das
=9	=9
8g	mir
16aL	das
16b-J	.
8cc	Herʒ
8dd	ab-
=10	=10
4cc}	-ringt,
!LO:TX:a:t=Alle.	!
{4dd/	Es
=11	=11
8cc/	muß
16dd/L	ge-
16ccJ	.
8b-/	-ſchieden
16cc/	.
16b-LJ	.
=12	=12
4a;}	ſeyn!
!LO:TX:a:t=Vorſänger.	!
{4a	Das
=13	=13
8g	mich
16aL	ʒum
16b-J	.
8cc	Grabe
8dd	.
=14	=14
4cc}	bringt!
!LO:TX:a:t=Alle.	!
{4dd/	Es
=15	=15
8ff/	muß
16ee/L	ge-
16ddJ	.
8ee/	-ſchieden
8cc#/	.
=16	=16
4dd/	ſeyn!
8r}	.
==	==
!!!AGN: Erzaehlung, Romanze, Abschieds - Lied
!!!ONB: ESAC (Essen Associative Code) Database: ZUCCAL
!!!AMT: simple duple
!!!AIN: vox
!!!EED: Helmut Schaffrath
!!!EEV: 1.0
!!!GTL: Anhang ʒu den Volks- Leuſchen.
!!!URL-scan: https://www.digitale-sammlungen.de/de/view/bsb11160573?page=687
!!!ENC: Anna Maria Matuszewska
!!!EEV: 2025/02/07
*-	*-
